X: 28922
T: Na Seamroga Feoite
R: reel
M: 4/4
K: Amixolydian
eAcA eAcA|eAcA dBGB|eAcA eAcA|dBGB A2 A2:|
eaag eAcA|egge dBGB|eaag eAcA|dBGB A2 A2:|

